img/icon-payment/logo-mastercard.svg

<svg width="50" height="39" viewBox="0 0 50 39" fill="none" xmlns="http://www.w3.org/2000/svg">
<path d="M8.53453 34.7823C8.39613 34.6439 8.22314 34.5286 8.02709 34.4478C7.83103 34.3671 7.61191 34.3325 7.38126 34.3325C7.2544 34.3325 7.12754 34.3441 7.00068 34.3671C6.86229 34.3902 6.73543 34.4248 6.60857 34.4824C6.48171 34.5401 6.35485 34.6093 6.23952 34.7016C6.12419 34.7938 6.0204 34.9207 5.93967 35.0591C5.80128 34.8284 5.61676 34.6554 5.3861 34.5286C5.15545 34.4017 4.87866 34.3325 4.57881 34.3325C4.47502 34.3325 4.37123 34.344 4.26743 34.3556C4.16364 34.3786 4.04831 34.4017 3.94452 34.4478C3.84072 34.494 3.73693 34.5516 3.63313 34.6324C3.54087 34.7131 3.44861 34.8054 3.36788 34.9322V34.4363H2.50293V38.5073H3.36788V36.2469C3.36788 36.074 3.39095 35.924 3.44861 35.7856C3.50627 35.6472 3.57547 35.5434 3.66773 35.4512C3.75999 35.3589 3.86379 35.2897 3.99065 35.2436C4.11751 35.1975 4.24437 35.1744 4.38276 35.1744C4.67108 35.1744 4.90173 35.2667 5.06319 35.4512C5.22464 35.6357 5.30537 35.901 5.30537 36.2469V38.5189H6.17033V36.2585C6.17033 36.0855 6.19339 35.9356 6.25105 35.7972C6.30872 35.6588 6.37791 35.555 6.47017 35.4627C6.56244 35.3705 6.66623 35.3013 6.79309 35.2551C6.91995 35.209 7.04681 35.1859 7.1852 35.1859C7.47352 35.1859 7.70417 35.2782 7.86563 35.4627C8.02709 35.6472 8.10782 35.9125 8.10782 36.2585V38.5304H8.97277V35.9702C8.97277 35.728 8.93817 35.5089 8.85744 35.3128C8.78825 35.0937 8.67292 34.9207 8.53453 34.7823Z" fill="black"/>
<path d="M13.09 34.921C12.9516 34.7365 12.7671 34.5981 12.5595 34.4827C12.3519 34.379 12.0982 34.3213 11.8098 34.3213C11.5215 34.3213 11.2563 34.379 11.0141 34.4827C10.7719 34.5865 10.5528 34.7365 10.3683 34.9325C10.1837 35.117 10.0338 35.3477 9.93001 35.613C9.82622 35.8782 9.76855 36.1665 9.76855 36.4779C9.76855 36.7893 9.82622 37.0776 9.93001 37.3429C10.0338 37.6081 10.1837 37.8272 10.3683 38.0233C10.5528 38.2078 10.7719 38.3577 11.0141 38.4731C11.2563 38.5769 11.5331 38.6345 11.8098 38.6345C12.0982 38.6345 12.3519 38.5769 12.5595 38.4731C12.7671 38.3693 12.94 38.2193 13.09 38.0348V38.5192H13.978V34.4482H13.09V34.921ZM13.0554 36.9853C12.9977 37.1468 12.917 37.2852 12.8017 37.4005C12.6979 37.5158 12.5595 37.6081 12.4095 37.6773C12.2596 37.7465 12.0866 37.7811 11.9021 37.7811C11.706 37.7811 11.5331 37.7465 11.3831 37.6773C11.2332 37.6081 11.1063 37.5158 11.0026 37.4005C10.8988 37.2852 10.818 37.1468 10.7604 36.9853C10.7027 36.8239 10.6796 36.6624 10.6796 36.4779C10.6796 36.3049 10.7027 36.1319 10.7604 35.9705C10.818 35.809 10.8988 35.6706 11.0026 35.5553C11.1063 35.44 11.2332 35.3477 11.3831 35.2785C11.5331 35.2093 11.706 35.1747 11.9021 35.1747C12.0866 35.1747 12.2481 35.2093 12.4095 35.2785C12.5595 35.3477 12.6863 35.44 12.8017 35.5553C12.9054 35.6706 12.9977 35.809 13.0554 35.9705C13.113 36.1319 13.1476 36.3049 13.1476 36.4894C13.1476 36.674 13.113 36.8354 13.0554 36.9853Z" fill="black"/>
<path d="M18.0717 36.4663C17.818 36.2702 17.472 36.1433 17.0338 36.0741L16.6071 36.0049C16.5148 35.9934 16.4226 35.9703 16.3418 35.9588C16.2611 35.9357 16.1919 35.9127 16.1342 35.8896C16.0766 35.855 16.0305 35.8204 15.9959 35.7743C15.9613 35.7282 15.9382 35.6705 15.9382 35.6013C15.9382 35.4514 16.0074 35.3361 16.1458 35.2553C16.2842 35.1631 16.4687 35.1169 16.7109 35.1169C16.8377 35.1169 16.9646 35.1285 17.0915 35.1515C17.2183 35.1746 17.3336 35.1977 17.4374 35.2323C17.5528 35.2669 17.645 35.3015 17.7373 35.3476C17.8296 35.3937 17.9103 35.4283 17.9679 35.4629L18.3485 34.7709C18.1409 34.6326 17.8872 34.5288 17.5989 34.4596C17.3106 34.3788 17.0107 34.3442 16.6878 34.3442C16.4226 34.3442 16.1919 34.3788 15.9843 34.4365C15.7767 34.4942 15.6037 34.5864 15.4538 34.7017C15.3039 34.8171 15.2001 34.9555 15.1194 35.1169C15.0386 35.2784 15.004 35.4629 15.004 35.659C15.004 35.9934 15.1194 36.2587 15.35 36.4547C15.5807 36.6623 15.9267 36.7892 16.3764 36.8584L16.8031 36.916C17.0453 36.9506 17.2299 37.0083 17.3336 37.0775C17.449 37.1582 17.5066 37.2505 17.5066 37.3658C17.5066 37.5157 17.4259 37.6426 17.276 37.7349C17.1145 37.8271 16.8839 37.8732 16.584 37.8732C16.411 37.8732 16.2726 37.8617 16.1342 37.8386C16.0074 37.8156 15.8805 37.781 15.7767 37.7464C15.6729 37.7118 15.5691 37.6657 15.4884 37.6195C15.3962 37.5734 15.327 37.5157 15.2462 37.4581L14.8311 38.127C14.981 38.2423 15.1309 38.323 15.2924 38.3922C15.4538 38.4614 15.6153 38.5191 15.7652 38.5537C15.9267 38.5883 16.0651 38.6229 16.2034 38.6344C16.3418 38.6459 16.4687 38.6575 16.5725 38.6575C16.8608 38.6575 17.1261 38.6229 17.3567 38.5652C17.5874 38.496 17.7834 38.4037 17.9449 38.2884C18.1063 38.1731 18.2217 38.0347 18.3024 37.8617C18.3831 37.6887 18.4293 37.5157 18.4293 37.3197C18.4408 36.9276 18.3255 36.6623 18.0717 36.4663Z" fill="black"/>
<path d="M26.3988 34.9207C26.2259 34.7362 26.0298 34.5862 25.7876 34.4824C25.5454 34.3786 25.2917 34.3325 25.0034 34.3325C24.7035 34.3325 24.4268 34.3786 24.1846 34.4824C23.9308 34.5862 23.7233 34.7362 23.5387 34.9207C23.3542 35.1052 23.2158 35.3359 23.1236 35.6011C23.0198 35.8664 22.9736 36.1547 22.9736 36.4776C22.9736 36.8005 23.0198 37.1004 23.1236 37.3541C23.2274 37.6193 23.3657 37.8385 23.5503 38.0345C23.7348 38.219 23.9539 38.369 24.2076 38.4728C24.4614 38.5765 24.7381 38.6227 25.0495 38.6227C25.3609 38.6227 25.6492 38.5765 25.9375 38.4958C26.2143 38.4151 26.4796 38.2652 26.7333 38.046L26.295 37.4117C26.1221 37.5501 25.9375 37.6539 25.7299 37.7231C25.5224 37.8039 25.3148 37.8385 25.1187 37.8385C24.9688 37.8385 24.8304 37.8154 24.7035 37.7808C24.5651 37.7462 24.4498 37.677 24.346 37.5963C24.2422 37.5155 24.15 37.4002 24.0692 37.2734C23.9885 37.1465 23.9424 36.985 23.9078 36.8005H26.9178C26.9178 36.7544 26.9293 36.6967 26.9293 36.6391C26.9293 36.5814 26.9293 36.5237 26.9293 36.4661C26.9293 36.1432 26.8832 35.8548 26.791 35.6011C26.6987 35.3359 26.5718 35.1052 26.3988 34.9207ZM23.9078 36.1201C23.9308 35.9702 23.9654 35.8318 24.0231 35.7164C24.0808 35.5896 24.15 35.4858 24.2422 35.3935C24.3345 35.3013 24.4383 35.2321 24.5651 35.1859C24.692 35.1398 24.8304 35.1167 24.9919 35.1167C25.2802 35.1167 25.5108 35.209 25.6838 35.382C25.8683 35.555 25.9721 35.8087 26.0298 36.1201H23.9078Z" fill="black"/>
<path d="M38.2189 34.921C38.0805 34.7365 37.896 34.5981 37.6884 34.4827C37.4808 34.379 37.2271 34.3213 36.9387 34.3213C36.6504 34.3213 36.3852 34.379 36.143 34.4827C35.9008 34.5865 35.6817 34.7365 35.4972 34.9325C35.3126 35.117 35.1627 35.3477 35.0589 35.613C34.9551 35.8782 34.8975 36.1665 34.8975 36.4779C34.8975 36.7893 34.9551 37.0776 35.0589 37.3429C35.1627 37.6081 35.3126 37.8272 35.4972 38.0233C35.6817 38.2078 35.9008 38.3577 36.143 38.4731C36.3852 38.5769 36.662 38.6345 36.9387 38.6345C37.2271 38.6345 37.4808 38.5769 37.6884 38.4731C37.896 38.3693 38.069 38.2193 38.2189 38.0348V38.5192H39.1069V34.4482H38.2189V34.921ZM38.1843 36.9853C38.1266 37.1468 38.0459 37.2852 37.9306 37.4005C37.8268 37.5158 37.6884 37.6081 37.5384 37.6773C37.3885 37.7465 37.2155 37.7811 37.031 37.7811C36.835 37.7811 36.662 37.7465 36.512 37.6773C36.3621 37.6081 36.2353 37.5158 36.1315 37.4005C36.0277 37.2852 35.9469 37.1468 35.8893 36.9853C35.8316 36.8239 35.8085 36.6624 35.8085 36.4779C35.8085 36.3049 35.8316 36.1319 35.8893 35.9705C35.9469 35.809 36.0277 35.6706 36.1315 35.5553C36.2353 35.44 36.3621 35.3477 36.512 35.2785C36.662 35.2093 36.835 35.1747 37.031 35.1747C37.2155 35.1747 37.3885 35.2093 37.5384 35.2785C37.6884 35.3477 37.8152 35.44 37.9306 35.5553C38.0344 35.6706 38.1266 35.809 38.1843 35.9705C38.2419 36.1319 38.2765 36.3049 38.2765 36.4894C38.2765 36.674 38.2419 36.8354 38.1843 36.9853Z" fill="black"/>
<path d="M21.8897 37.7004C21.7513 37.758 21.6014 37.7811 21.463 37.7811C21.3708 37.7811 21.29 37.7696 21.2093 37.735C21.1286 37.7119 21.0594 37.6658 21.0017 37.5966C20.944 37.5389 20.8979 37.4582 20.8633 37.3659C20.8287 37.2737 20.8172 37.1584 20.8172 37.02V35.2439H22.2472V34.4366H20.8172V33.2026H19.9176V34.4366H19.1104V35.2439H19.9176V37.0315C19.9176 37.5735 20.0445 37.9772 20.2982 38.2309C20.5519 38.4846 20.9095 38.6115 21.3823 38.6115C21.636 38.6115 21.8667 38.5769 22.0743 38.4961C22.2126 38.4385 22.3395 38.3808 22.4548 38.3232L22.155 37.5735C22.0743 37.6197 21.982 37.6658 21.8897 37.7004Z" fill="black"/>
<path d="M29.9161 34.3213C29.6623 34.3213 29.4432 34.3674 29.2356 34.4597C29.0396 34.5519 28.8666 34.7711 28.7282 34.9671V34.4366H27.9209V38.5077H28.7397V36.2703C28.7397 36.0973 28.7628 35.9474 28.8089 35.809C28.855 35.6706 28.9242 35.5553 29.005 35.463C29.0857 35.3708 29.1895 35.3016 29.3164 35.2554C29.4317 35.2093 29.5701 35.1862 29.7085 35.1862C29.8123 35.1862 29.9276 35.1978 30.0544 35.2208C30.1236 35.2324 30.1813 35.2554 30.2274 35.267L30.4927 34.4135C30.4235 34.3905 30.3543 34.3674 30.2736 34.3559C30.1698 34.3328 30.0544 34.3213 29.9161 34.3213Z" fill="black"/>
<path d="M42.2784 34.3213C42.0246 34.3213 41.8055 34.3674 41.5979 34.4597C41.4019 34.5519 41.2289 34.7711 41.0905 34.9671V34.4366H40.2832V38.5077H41.102V36.2703C41.102 36.0973 41.1251 35.9474 41.1712 35.809C41.2173 35.6706 41.2865 35.5553 41.3673 35.463C41.448 35.3708 41.5518 35.3016 41.6787 35.2554C41.794 35.2093 41.9324 35.1862 42.0708 35.1862C42.1746 35.1862 42.2899 35.1978 42.4168 35.2208C42.4859 35.2324 42.5436 35.2554 42.5897 35.267L42.855 34.4135C42.7858 34.3905 42.7166 34.3674 42.6359 34.3559C42.5321 34.3328 42.4167 34.3213 42.2784 34.3213Z" fill="black"/>
<path d="M46.4308 32.7759V34.921C46.2924 34.7364 46.1079 34.598 45.9003 34.4827C45.6927 34.3789 45.439 34.3213 45.1507 34.3213C44.8623 34.3213 44.5971 34.3789 44.3549 34.4827C44.1127 34.5865 43.8936 34.7364 43.7091 34.9325C43.5245 35.117 43.3746 35.3477 43.2708 35.6129C43.167 35.8782 43.1094 36.1665 43.1094 36.4779C43.1094 36.7893 43.167 37.0776 43.2708 37.3428C43.3746 37.6081 43.5245 37.8272 43.7091 38.0233C43.8936 38.2078 44.1127 38.3577 44.3549 38.473C44.5971 38.5768 44.8739 38.6345 45.1507 38.6345C45.439 38.6345 45.6927 38.5768 45.9003 38.473C46.1079 38.3692 46.2809 38.2193 46.4308 38.0348V38.5192H47.3188V32.7874H46.4308V32.7759ZM46.3962 36.9853C46.3385 37.1468 46.2578 37.2852 46.1425 37.4005C46.0387 37.5158 45.9003 37.6081 45.7504 37.6773C45.6004 37.7465 45.4274 37.7811 45.2429 37.7811C45.0469 37.7811 44.8739 37.7465 44.724 37.6773C44.574 37.6081 44.4472 37.5158 44.3434 37.4005C44.2396 37.2852 44.1589 37.1468 44.1012 36.9853C44.0435 36.8239 44.0205 36.6624 44.0205 36.4779C44.0205 36.3049 44.0435 36.1319 44.1012 35.9704C44.1589 35.809 44.2396 35.6706 44.3434 35.5553C44.4472 35.4399 44.574 35.3477 44.724 35.2785C44.8739 35.2093 45.0469 35.1747 45.2429 35.1747C45.4274 35.1747 45.5889 35.2093 45.7504 35.2785C45.9003 35.3477 46.0271 35.4399 46.1425 35.5553C46.2463 35.6706 46.3385 35.809 46.3962 35.9704C46.4539 36.1319 46.4885 36.3049 46.4885 36.4894C46.4885 36.6739 46.4539 36.8354 46.3962 36.9853Z" fill="black"/>
<path d="M32.0378 35.5319C32.1531 35.4166 32.2915 35.3243 32.4414 35.2667C32.6029 35.1975 32.7643 35.1744 32.9488 35.1744C33.1449 35.1744 33.3294 35.209 33.5024 35.2667C33.6639 35.3243 33.8138 35.4166 33.9291 35.5204L34.3558 34.8054C34.1944 34.6785 34.0098 34.5747 33.8138 34.494C33.5485 34.3902 33.2487 34.3325 32.9373 34.3325C32.6259 34.3325 32.3261 34.3902 32.0608 34.494C31.7956 34.5978 31.5649 34.7592 31.3689 34.9438C31.1728 35.1398 31.0229 35.3589 30.9076 35.6242C30.7922 35.8894 30.7461 36.1662 30.7461 36.4776C30.7461 36.789 30.8038 37.0658 30.9076 37.331C31.0229 37.5963 31.1728 37.8154 31.3689 38.0114C31.5649 38.2075 31.7956 38.3574 32.0608 38.4612C32.3261 38.565 32.6259 38.6227 32.9373 38.6227C33.2487 38.6227 33.5485 38.565 33.8138 38.4612C34.0098 38.3805 34.1944 38.2767 34.3558 38.1498L33.9291 37.4348C33.8023 37.5386 33.6639 37.6309 33.5024 37.6885C33.3294 37.7577 33.1449 37.7808 32.9488 37.7808C32.7643 37.7808 32.6029 37.7462 32.4414 37.6885C32.2799 37.6193 32.1531 37.5386 32.0378 37.4233C31.9224 37.308 31.8302 37.1696 31.7725 37.0081C31.7033 36.8466 31.6802 36.6737 31.6802 36.4776C31.6802 36.2815 31.7148 36.1086 31.7725 35.9471C31.8417 35.7856 31.934 35.6472 32.0378 35.5319Z" fill="black"/>
<path d="M49.199 37.908C49.2566 37.908 49.3143 37.9195 49.3604 37.9426C49.4066 37.9656 49.4527 37.9887 49.4988 38.0348C49.5334 38.0694 49.568 38.1155 49.5911 38.1617C49.6142 38.2078 49.6257 38.2655 49.6257 38.3231C49.6257 38.3808 49.6142 38.4385 49.5911 38.4846C49.568 38.5307 49.5334 38.5768 49.4988 38.623C49.4642 38.6576 49.4181 38.6922 49.3604 38.7152C49.3143 38.7383 49.2566 38.7498 49.199 38.7498C49.1413 38.7498 49.0837 38.7383 49.026 38.7152C48.9683 38.6922 48.9337 38.6691 48.8876 38.623C48.853 38.5884 48.8184 38.5423 48.7953 38.4846C48.7723 38.4269 48.7607 38.3808 48.7607 38.3231C48.7607 38.2655 48.7723 38.2078 48.7953 38.1617C48.8184 38.1155 48.853 38.0694 48.8876 38.0348C48.9222 38.0002 48.9683 37.9656 49.026 37.9426C49.0837 37.9195 49.1298 37.908 49.199 37.908ZM49.199 38.623C49.2451 38.623 49.2797 38.6115 49.3143 38.5999C49.3489 38.5884 49.3835 38.5653 49.4066 38.5307C49.4296 38.5077 49.4527 38.4731 49.4642 38.4385C49.4758 38.4039 49.4873 38.3577 49.4873 38.3231C49.4873 38.277 49.4758 38.2424 49.4642 38.2078C49.4527 38.1732 49.4296 38.1386 49.4066 38.1155C49.3835 38.0925 49.3489 38.0694 49.3143 38.0463C49.2797 38.0348 49.2336 38.0233 49.199 38.0233C49.1529 38.0233 49.1183 38.0348 49.0837 38.0463C49.0491 38.0579 49.0145 38.0809 48.9914 38.1155C48.9683 38.1386 48.9453 38.1732 48.9222 38.2078C48.9107 38.2424 48.8991 38.2885 48.8991 38.3231C48.8991 38.3693 48.9107 38.4039 48.9222 38.4385C48.9337 38.4731 48.9568 38.5077 48.9914 38.5307C49.0145 38.5538 49.0491 38.5769 49.0837 38.5999C49.1183 38.623 49.1529 38.623 49.199 38.623ZM49.222 38.1386C49.2682 38.1386 49.3143 38.1501 49.3374 38.1732C49.3604 38.1963 49.372 38.2309 49.372 38.2655C49.372 38.3001 49.3604 38.3231 49.3489 38.3347C49.3258 38.3577 49.3028 38.3693 49.2682 38.3693L49.3835 38.4961H49.2566L49.1529 38.3693H49.1413V38.4961H49.0375V38.1271H49.222V38.1386ZM49.1413 38.2309V38.3001H49.222C49.2336 38.3001 49.2451 38.3001 49.2566 38.2885C49.2682 38.2885 49.2682 38.277 49.2682 38.2655C49.2682 38.2539 49.2682 38.2424 49.2566 38.2424C49.2451 38.2424 49.2336 38.2309 49.222 38.2309H49.1413Z" fill="black"/>
<path d="M19.052 15.3731C19.052 10.4947 21.3355 6.13539 24.8875 3.32142C22.2696 1.24553 18.9597 0 15.3615 0C6.87348 0 0 6.87348 0 15.3615C0 23.8496 6.87348 30.7231 15.3615 30.7231C18.9597 30.7231 22.2696 29.4776 24.8875 27.4017C21.3355 24.6108 19.052 20.2629 19.052 15.3731Z" fill="#E30D17"/>
<path d="M24.8873 27.4249C28.1102 27.4249 30.7228 22.0291 30.7228 15.3732C30.7228 8.71725 28.1102 3.32153 24.8873 3.32153C21.6644 3.32153 19.0518 8.71725 19.0518 15.3732C19.0518 22.0291 21.6644 27.4249 24.8873 27.4249Z" fill="#EB610A"/>
<path d="M48.7373 23.6882V23.2384H48.5527V23.1116H49.0486V23.2384H48.8641V23.6882H48.7373ZM49.706 23.6882V23.2961L49.5791 23.6421H49.4408L49.3139 23.2961V23.6882H49.1755V23.1116H49.3716L49.5099 23.4806L49.6483 23.1116H49.8444V23.6882H49.706Z" fill="#F69F00"/>
<path d="M34.4137 0.0114746C30.8155 0.0114746 27.5056 1.25701 24.8877 3.33289C28.4398 6.14687 30.7232 10.4947 30.7232 15.3845C30.7232 20.2744 28.4398 24.6222 24.8877 27.4362C27.5056 29.5121 30.8155 30.7576 34.4137 30.7576C42.9018 30.7576 49.7752 23.8841 49.7752 15.3961C49.7752 6.90802 42.9018 0.0114746 34.4137 0.0114746Z" fill="#F69F00"/>
</svg>

<svg width="50" height="39" fill="none" xmlns="http://www.w3.org/2000/svg"><path d="M8.535 34.782a1.557 1.557 0 00-1.154-.45 2.13 2.13 0 00-.38.035 1.539 1.539 0 00-.392.115 1.73 1.73 0 00-.37.22c-.115.092-.219.219-.3.357a1.437 1.437 0 00-.553-.53 1.672 1.672 0 00-.807-.197c-.104 0-.208.012-.312.024-.103.023-.219.046-.322.092a1.471 1.471 0 00-.312.184c-.092.081-.184.173-.265.3v-.496h-.865v4.071h.865v-2.26c0-.173.023-.323.08-.461a.99.99 0 01.22-.335.864.864 0 01.323-.207c.127-.047.253-.07.392-.07.288 0 .519.093.68.277.162.185.242.45.242.796v2.272h.865v-2.26c0-.173.023-.323.081-.462a.992.992 0 01.22-.334.867.867 0 01.322-.208c.127-.046.254-.07.392-.07.289 0 .52.093.68.278.162.184.243.45.243.795v2.272h.865v-2.56c0-.242-.035-.461-.116-.657a1.29 1.29 0 00-.322-.53zM13.09 34.921a1.64 1.64 0 00-.53-.438 1.673 1.673 0 00-.75-.162c-.289 0-.554.058-.796.162a1.92 1.92 0 00-.646.45 1.975 1.975 0 00-.438.68 2.355 2.355 0 00-.161.865c0 .311.057.6.161.865.104.265.254.484.438.68.185.185.404.335.646.45.242.104.52.162.796.162.288 0 .542-.058.75-.162.207-.104.38-.254.53-.438v.484h.888v-4.07h-.888v.472zm-.035 2.064c-.057.162-.138.3-.253.416a1.206 1.206 0 01-.9.38 1.157 1.157 0 01-1.142-.796 1.462 1.462 0 01-.08-.507c0-.173.023-.346.08-.508a1.157 1.157 0 011.142-.796c.185 0 .346.035.508.105.15.069.276.161.392.276.103.116.196.254.253.416.058.16.093.334.093.518 0 .185-.035.346-.093.496zM18.072 36.466c-.254-.196-.6-.323-1.038-.392l-.427-.07c-.092-.01-.184-.034-.265-.045a2.184 2.184 0 01-.208-.07.462.462 0 01-.138-.115.283.283 0 01-.058-.173c0-.15.07-.265.208-.346.138-.092.323-.138.565-.138.127 0 .254.012.38.035a2.558 2.558 0 01.646.196c.093.046.173.08.23.115l.382-.692a2.33 2.33 0 00-.75-.311 3.341 3.341 0 00-.911-.116c-.265 0-.496.035-.704.093a1.53 1.53 0 00-.53.265 1.16 1.16 0 00-.335.415c-.08.161-.115.346-.115.542 0 .334.115.6.346.796.23.207.577.334 1.026.403l.427.058c.242.035.427.092.53.162.116.08.174.172.174.288 0 .15-.081.277-.231.369-.162.092-.392.138-.692.138-.173 0-.311-.011-.45-.034a2.675 2.675 0 01-.357-.093 1.661 1.661 0 01-.289-.127c-.092-.046-.161-.103-.242-.16l-.415.668c.15.115.3.196.461.265.162.07.323.127.473.162.162.034.3.069.438.08.139.012.266.023.37.023.288 0 .553-.034.784-.092.23-.069.426-.161.588-.277.161-.115.277-.253.357-.426.081-.173.127-.346.127-.542.012-.392-.103-.658-.357-.854zM26.399 34.92a1.8 1.8 0 00-.611-.438 1.94 1.94 0 00-.785-.15c-.3 0-.576.047-.818.15a1.942 1.942 0 00-.646.439 1.775 1.775 0 00-.415.68c-.104.265-.15.554-.15.877 0 .322.046.622.15.876.103.265.242.485.426.68.185.185.404.335.658.439.253.104.53.15.841.15.312 0 .6-.046.889-.127.276-.08.542-.23.795-.45l-.438-.634a1.808 1.808 0 01-.565.311c-.208.08-.415.116-.611.116a1.57 1.57 0 01-.416-.058.96.96 0 01-.357-.185 1.28 1.28 0 01-.277-.323 1.344 1.344 0 01-.161-.473h3.01c0-.046.011-.103.011-.16v-.174c0-.323-.046-.611-.138-.865a1.884 1.884 0 00-.392-.68zm-2.491 1.2c.023-.15.057-.288.115-.404.058-.126.127-.23.22-.322a.867.867 0 01.322-.208c.127-.046.265-.07.427-.07.288 0 .519.093.692.266.184.173.288.427.346.738h-2.122zM38.219 34.921a1.64 1.64 0 00-.53-.438 1.673 1.673 0 00-.75-.162c-.289 0-.554.058-.796.162a1.92 1.92 0 00-.646.45 1.976 1.976 0 00-.438.68 2.354 2.354 0 00-.161.865c0 .311.057.6.16.865.105.265.255.484.44.68.184.185.403.335.645.45.242.104.519.162.796.162.288 0 .542-.058.75-.162.207-.104.38-.254.53-.438v.484h.888v-4.07h-.888v.472zm-.035 2.064c-.057.162-.138.3-.253.416a1.206 1.206 0 01-.9.38 1.158 1.158 0 01-1.142-.796 1.462 1.462 0 01-.08-.507c0-.173.023-.346.08-.508a1.158 1.158 0 011.142-.796 1.21 1.21 0 011.153.797c.058.16.093.334.093.518 0 .185-.035.346-.093.496zM21.89 37.7a1.12 1.12 0 01-.427.081.62.62 0 01-.254-.046.415.415 0 01-.207-.138.647.647 0 01-.139-.231 1.005 1.005 0 01-.046-.346v-1.776h1.43v-.807h-1.43v-1.234h-.9v1.234h-.807v.807h.808v1.788c0 .542.127.945.38 1.199.254.254.612.38 1.084.38.254 0 .485-.034.692-.115.139-.058.265-.115.38-.173l-.299-.75c-.08.047-.173.093-.265.127zM29.916 34.321a1.63 1.63 0 00-.68.139c-.196.092-.37.311-.508.507v-.53h-.807v4.07h.819V36.27c0-.173.023-.323.069-.461.046-.138.115-.254.196-.346a.742.742 0 01.311-.208c.116-.046.254-.069.393-.069.103 0 .219.012.345.035.07.011.127.034.173.046l.266-.854c-.07-.022-.139-.046-.22-.057a1.632 1.632 0 00-.357-.035zM42.278 34.321a1.63 1.63 0 00-.68.139c-.196.092-.37.311-.508.507v-.53h-.807v4.07h.819V36.27c0-.173.023-.323.07-.461.045-.138.114-.254.195-.346a.742.742 0 01.312-.208c.115-.046.253-.069.392-.069.104 0 .219.012.346.035.069.011.127.034.173.046l.265-.854c-.07-.022-.138-.046-.22-.057a1.632 1.632 0 00-.357-.035zM46.43 32.776v2.145a1.637 1.637 0 00-.53-.438 1.672 1.672 0 00-.75-.162c-.288 0-.553.058-.795.162a1.92 1.92 0 00-.646.45 1.976 1.976 0 00-.438.68 2.355 2.355 0 00-.162.865c0 .311.058.6.162.865.104.265.254.484.438.68.185.185.404.335.646.45.242.104.519.162.796.162.288 0 .542-.058.75-.162.207-.104.38-.254.53-.438v.484h.888v-5.732h-.888v-.011zm-.034 4.21a1.207 1.207 0 01-1.153.796c-.196 0-.37-.036-.519-.105a1.157 1.157 0 01-.623-.692 1.462 1.462 0 01-.08-.507c0-.173.023-.346.08-.508a1.156 1.156 0 011.142-.796c.184 0 .346.035.507.105.15.069.277.16.392.276.104.116.197.254.254.415.058.162.093.335.093.52 0 .184-.035.345-.093.495zM32.038 35.532a1.241 1.241 0 01.911-.358c.196 0 .38.035.553.093.162.057.312.15.427.253l.427-.715a2.284 2.284 0 00-.542-.311 2.417 2.417 0 00-.877-.161c-.311 0-.61.057-.876.161a2.172 2.172 0 00-.692.45 2.084 2.084 0 00-.623 1.534c0 .311.058.588.162.853.115.265.265.484.46.68.197.197.428.346.693.45.265.104.565.162.876.162.312 0 .611-.058.877-.162.196-.08.38-.184.542-.311l-.427-.715a1.44 1.44 0 01-.427.253 1.47 1.47 0 01-.553.093c-.185 0-.346-.035-.508-.093a1.228 1.228 0 01-.403-.265 1.115 1.115 0 01-.265-.415 1.317 1.317 0 01-.093-.53c0-.197.035-.37.093-.53.069-.162.161-.3.265-.416zM49.199 37.908c.058 0 .115.011.161.035a.48.48 0 01.139.092c.034.034.069.08.092.127a.368.368 0 01.035.161.368.368 0 01-.035.162c-.023.046-.058.092-.092.138a.413.413 0 01-.139.092.368.368 0 01-.161.035.462.462 0 01-.173-.035.415.415 0 01-.23-.23.408.408 0 01-.035-.162.37.37 0 01.034-.161.512.512 0 01.093-.127.413.413 0 01.138-.092.42.42 0 01.173-.035zm0 .715a.34.34 0 00.115-.023.18.18 0 00.093-.07.25.25 0 00.057-.092.408.408 0 00.023-.115.34.34 0 00-.023-.115.252.252 0 00-.057-.093.65.65 0 00-.093-.069.41.41 0 00-.115-.023.342.342 0 00-.115.023.18.18 0 00-.093.07c-.023.023-.046.057-.069.092a.41.41 0 00-.023.115c0 .046.012.08.023.115.012.035.035.07.07.093a.635.635 0 00.092.069c.034.023.069.023.115.023zm.023-.484c.046 0 .092.011.115.034a.131.131 0 01.035.093c0 .034-.012.057-.023.069a.105.105 0 01-.08.034l.114.127h-.126l-.104-.127h-.012v.127h-.103v-.369h.184v.012zm-.08.092v.07h.08c.012 0 .023 0 .035-.013.011 0 .011-.011.011-.022 0-.012 0-.024-.011-.024-.012 0-.023-.011-.035-.011h-.08z" fill="#000"/><path d="M19.052 15.373c0-4.878 2.284-9.238 5.835-12.052A15.284 15.284 0 0015.361 0C6.873 0 0 6.873 0 15.361c0 8.489 6.873 15.362 15.361 15.362 3.599 0 6.909-1.245 9.526-3.321a15.256 15.256 0 01-5.835-12.029z" fill="#E30D17"/><path d="M24.887 27.425c3.223 0 5.836-5.396 5.836-12.052S28.11 3.322 24.887 3.322c-3.223 0-5.835 5.395-5.835 12.051 0 6.656 2.612 12.052 5.835 12.052z" fill="#EB610A"/><path d="M48.737 23.688v-.45h-.184v-.126h.496v.126h-.185v.45h-.127zm.969 0v-.392l-.127.346h-.138l-.127-.346v.392h-.139v-.576h.197l.138.369.138-.37h.196v.577h-.138zM34.414.011a15.284 15.284 0 00-9.526 3.322c3.552 2.814 5.835 7.162 5.835 12.052s-2.283 9.237-5.835 12.051a15.284 15.284 0 009.526 3.322c8.488 0 15.361-6.874 15.361-15.362S42.902.011 34.414.011z" fill="#F69F00"/></svg>
